X: 7646
T: Cold Frosty Morning
R: reel
M: 4/4
K: Adorian
EGAB A2AB|cAcd e2A2|G2BA G2D2|GABc d4|
E2 ABA2AB|cAcd e2AB|cBAc BAG2|A8:|
ea2a a2ag|abag e2d2|edef g2f2|edcd e4|
A2A2c3c|dcd2 e2AB|cBAc BAG2|A8:|

